X:1
T: Catherine's Strathspey
C:C Sherrit
R:Strathspey
Q: 128
K:A
M:4/4
L:1/16
E2|:A3B A3a e3d ce3|d3c B3A GABA GE3|F3E DF3 E3A ce3|B3e ((3^d2e2f2) ge3 e3E|
A3B A3a e3d ce3|d3c B3A GABA GE3|F3E DF3 E3A ce3|1((3g2f2e2) ((3d2c2B2) cA3 A3E:|2((3g2f2e2) ((3d2c2B2) cA3 A3c|
|:e3d c3a fd3 d3B|((3G2A2B2) g3f ec3 c3A|F3A df3 f3e cA3|G3B A3F E3G Bd3|
e3d c3a fd3 d3B|((3G2A2B2) g3f ec3 c3A|F3E DF3 E3A ce3|1((3g2f2e2) ((3d2c2B2) cA3 A3c:|2((3g2f2e2) ((3d2c2B2) cA3 A2||
